material/.icons/material/lightbulb-on-outline.svg

<svg xmlns="http://www.w3.org/2000/svg" viewBox="0 0 24 24"><path d="M20 11h3v2h-3v-2M1 11h3v2H1v-2M13 1v3h-2V1h2M4.92 3.5l2.13 2.14-1.42 1.41L3.5 4.93 4.92 3.5m12.03 2.13l2.12-2.13 1.43 1.43-2.13 2.12-1.42-1.42M12 6a6 6 0 016 6c0 2.22-1.21 4.16-3 5.2V19a1 1 0 01-1 1h-4a1 1 0 01-1-1v-1.8c-1.79-1.04-3-2.98-3-5.2a6 6 0 016-6m2 15v1a1 1 0 01-1 1h-2a1 1 0 01-1-1v-1h4m-3-3h2v-2.13c1.73-.44 3-2.01 3-3.87a4 4 0 00-4-4 4 4 0 00-4 4c0 1.86 1.27 3.43 3 3.87V18z"/></svg>

<?xml version="1.0" encoding="UTF-8"?><!DOCTYPE svg PUBLIC "-//W3C//DTD SVG 1.1//EN" "http://www.w3.org/Graphics/SVG/1.1/DTD/svg11.dtd"><svg xmlns="http://www.w3.org/2000/svg" xmlns:xlink="http://www.w3.org/1999/xlink" version="1.1" id="mdi-lightbulb-on-outline" width="24" height="24" viewBox="0 0 24 24"><path d="M20,11H23V13H20V11M1,11H4V13H1V11M13,1V4H11V1H13M4.92,3.5L7.05,5.64L5.63,7.05L3.5,4.93L4.92,3.5M16.95,5.63L19.07,3.5L20.5,4.93L18.37,7.05L16.95,5.63M12,6A6,6 0 0,1 18,12C18,14.22 16.79,16.16 15,17.2V19A1,1 0 0,1 14,20H10A1,1 0 0,1 9,19V17.2C7.21,16.16 6,14.22 6,12A6,6 0 0,1 12,6M14,21V22A1,1 0 0,1 13,23H11A1,1 0 0,1 10,22V21H14M11,18H13V15.87C14.73,15.43 16,13.86 16,12A4,4 0 0,0 12,8A4,4 0 0,0 8,12C8,13.86 9.27,15.43 11,15.87V18Z" /></svg>
